icons/male_sex_worker.svg

<svg width="48" height="48" viewBox="0 0 48 48" fill="none" xmlns="http://www.w3.org/2000/svg">
<path fill-rule="evenodd" clip-rule="evenodd" d="M14.5 14C16.7091 14 18.5 12.2091 18.5 10C18.5 7.79086 16.7091 6 14.5 6C12.2909 6 10.5 7.79086 10.5 10C10.5 12.2091 12.2909 14 14.5 14ZM14.5 12C15.6046 12 16.5 11.1046 16.5 10C16.5 8.89543 15.6046 8 14.5 8C13.3954 8 12.5 8.89543 12.5 10C12.5 11.1046 13.3954 12 14.5 12Z" fill="black"/>
<path fill-rule="evenodd" clip-rule="evenodd" d="M27 18C27 20.2091 28.7909 22 31 22H32V24H34V22H35C37.2091 22 39 20.2091 39 18C39 15.7909 37.2091 14 35 14H34V10H35C36.1046 10 37 10.8954 37 12H39C39 9.79086 37.2091 8 35 8H34V6H32V8H31C28.7909 8 27 9.79086 27 12C27 14.2091 28.7909 16 31 16H32V20H31C29.8954 20 29 19.1046 29 18H27ZM37 18C37 16.8954 36.1046 16 35 16H34V20H35C36.1046 20 37 19.1046 37 18ZM29 12C29 13.1046 29.8954 14 31 14H32V10H31C29.8954 10 29 10.8954 29 12Z" fill="black"/>
<path fill-rule="evenodd" clip-rule="evenodd" d="M24 35C24 33.6938 24.8348 32.5825 26 32.1707V26H28V27L38 27V26H40V32.1707C41.1652 32.5825 42 33.6938 42 35V42H40V39H26V42H24V35ZM34 29L32 29V32H34V29ZM27 34C26.4477 34 26 34.4477 26 35V37H40V35C40 34.4477 39.5523 34 39 34H27ZM36 29V32H38V29H36ZM30 29H28V32H30V29Z" fill="black"/>
<path fill-rule="evenodd" clip-rule="evenodd" d="M12.5458 16C11.4552 16 10.3616 16.2453 9.37023 16.8415C8.381 17.4364 7.67098 18.2739 7.17857 19.1838C6.24949 20.9006 6.00002 23.0478 6 25.1435V25.2321C6 25.2617 6.00131 25.2912 6.00392 25.3206L6.01175 25.4087L6.0126 25.4224C6.01315 25.4327 6.01378 25.4468 6.01439 25.4657C6.01564 25.5038 6.01667 25.5553 6.0173 25.6231C6.01856 25.7588 6.01809 25.9482 6.01541 26.2059C6.01421 26.3209 6.01268 26.4454 6.01104 26.5787L6.01101 26.5805C6.006 26.9877 6 27.4745 6 28C6 29.6569 7.34315 31 9 31C9.17011 31 9.33718 30.9858 9.5 30.9584V39.5C9.5 40.8228 10.5304 41.9166 11.8508 41.9955C13.1712 42.0745 14.3246 41.1112 14.4822 39.7979L14.5 39.6495L14.5178 39.7979C14.6754 41.1112 15.8288 42.0745 17.1492 41.9955C18.4696 41.9166 19.5 40.8228 19.5 39.5V30.9584C19.6628 30.9858 19.8299 31 20 31C21.6569 31 23 29.6569 23 28C23 27.4753 22.994 26.9892 22.989 26.5824L22.989 26.5785C22.9873 26.4452 22.9858 26.3209 22.9846 26.2059C22.9819 25.9482 22.9814 25.7588 22.9827 25.6231C22.9833 25.5553 22.9844 25.5038 22.9856 25.4657C22.9862 25.4468 22.9868 25.4327 22.9874 25.4224L22.9882 25.4089L22.9961 25.3206C22.9987 25.2912 23 25.2617 23 25.2321V25.1435C23 23.0478 22.7505 20.9006 21.8214 19.1838C21.329 18.2739 20.619 17.4364 19.6298 16.8415C18.6384 16.2453 17.5448 16 16.4542 16H12.5458ZM17.0298 39.9991C17.2939 39.9833 17.5 39.7645 17.5 39.5V23H19.5V28.8664C19.6461 28.9509 19.8162 29 20 29C20.5523 29 21 28.5523 21 28C21 27.4875 20.9941 27.0116 20.9891 26.6031C20.9888 26.5783 20.9885 26.5534 20.9882 26.529C20.9869 26.4233 20.9857 26.3218 20.9847 26.2267C20.9795 25.7244 20.981 25.4014 20.9961 25.232L21 25.1878V25.1435C21 23.1478 20.7509 21.4078 20.0625 20.1357C19.7089 19.4823 19.2297 18.9347 18.599 18.5554C17.9676 18.1757 17.243 18 16.4542 18H12.5458C11.757 18 11.0324 18.1757 10.401 18.5554C9.77026 18.9347 9.29111 19.4823 8.93751 20.1357C8.2491 21.4078 8.00002 23.1478 8 25.1435V25.1878L8.00392 25.232C8.01897 25.4014 8.02053 25.7244 8.0153 26.2267C8.01408 26.3439 8.01253 26.4699 8.0109 26.6025C8.00586 27.011 8 27.4876 8 28C8 28.5523 8.44772 29 9 29C9.1838 29 9.35321 28.9513 9.49928 28.8668L9.5 23H11.5L11.5 39.5C11.5 39.7645 11.7061 39.9833 11.9702 39.9991C12.2342 40.0149 12.4649 39.8222 12.4964 39.5596L13.5071 31.1372C13.5674 30.6346 13.9938 30.2563 14.5 30.2563C15.0062 30.2563 15.4326 30.6346 15.4929 31.1372L16.5036 39.5596C16.5351 39.8222 16.7658 40.0149 17.0298 39.9991Z" fill="black"/>
</svg>

<svg
  xmlns="http://www.w3.org/2000/svg"
  width="24"
  height="24"
  viewBox="0 0 24 24"
  fill="none"
  stroke="currentColor"
  stroke-width="2"
  stroke-linecap="round"
  stroke-linejoin="round"
>
  <path
    fill-rule="evenodd"
    d="M14.5 14a4 4 0 1 0 0-8 4 4 0 0 0 0 8m0-2a2 2 0 1 0 0-4 2 2 0 0 0 0 4"
    clip-rule="evenodd"
  />
  <path
    fill-rule="evenodd"
    d="M27 18a4 4 0 0 0 4 4h1v2h2v-2h1a4 4 0 0 0 0-8h-1v-4h1a2 2 0 0 1 2 2h2a4 4 0 0 0-4-4h-1V6h-2v2h-1a4 4 0 0 0 0 8h1v4h-1a2 2 0 0 1-2-2zm10 0a2 2 0 0 0-2-2h-1v4h1a2 2 0 0 0 2-2m-8-6a2 2 0 0 0 2 2h1v-4h-1a2 2 0 0 0-2 2"
    clip-rule="evenodd"
  />
  <path
    fill-rule="evenodd"
    d="M24 35c0-1.306.835-2.417 2-2.83V26h2v1h10v-1h2v6.17c1.165.413 2 1.524 2 2.83v7h-2v-3H26v3h-2zm10-6h-2v3h2zm-7 5a1 1 0 0 0-1 1v2h14v-2a1 1 0 0 0-1-1zm9-5v3h2v-3zm-6 0h-2v3h2z"
    clip-rule="evenodd"
  />
  <path
    fill-rule="evenodd"
    d="M12.546 16c-1.09 0-2.184.245-3.176.841-.989.595-1.699 1.433-2.191 2.343C6.249 20.9 6 23.048 6 25.144v.088l.004.089.008.088v.013l.002.044q.003.057.003.157c.002.136.001.325-.002.583q0 .173-.004.373v.002C6.006 26.988 6 27.474 6 28a3 3 0 0 0 3.5 2.958V39.5a2.5 2.5 0 0 0 4.982.298l.018-.148.018.148A2.5 2.5 0 0 0 19.5 39.5v-8.542q.245.042.5.042a3 3 0 0 0 3-3c0-.525-.006-1.01-.011-1.418v-.004l-.004-.372a31 31 0 0 1 0-.74l.002-.044.001-.013.008-.088q.004-.045.004-.089v-.088c0-2.096-.25-4.243-1.179-5.96-.492-.91-1.202-1.748-2.191-2.343-.992-.596-2.085-.841-3.176-.841zm4.484 24a.5.5 0 0 0 .47-.5V23h2v5.866A1 1 0 0 0 21 28c0-.512-.006-.988-.01-1.397l-.002-.074-.003-.302c-.005-.503-.004-.826.011-.995l.004-.044v-.044c0-1.996-.25-3.736-.937-5.008-.354-.654-.833-1.201-1.464-1.58-.631-.38-1.356-.556-2.145-.556h-3.908c-.789 0-1.514.176-2.145.555-.63.38-1.11.927-1.463 1.58C8.249 21.409 8 23.149 8 25.144v.045l.004.044c.015.17.017.492.011.995q0 .176-.004.375C8.006 27.011 8 27.489 8 28a1 1 0 0 0 1.5.867V23h2v16.5a.5.5 0 0 0 .996.06l1.011-8.423a1 1 0 0 1 1.986 0l1.01 8.423a.5.5 0 0 0 .527.44"
    clip-rule="evenodd"
  />
</svg>
